common/media/svg/icons/agent.svg

<?xml version="1.0" encoding="UTF-8" standalone="no"?>
<svg
   xmlns:dc="http://purl.org/dc/elements/1.1/"
   xmlns:cc="http://creativecommons.org/ns#"
   xmlns:rdf="http://www.w3.org/1999/02/22-rdf-syntax-ns#"
   xmlns:svg="http://www.w3.org/2000/svg"
   xmlns="http://www.w3.org/2000/svg"
   xmlns:sodipodi="http://sodipodi.sourceforge.net/DTD/sodipodi-0.dtd"
   xmlns:inkscape="http://www.inkscape.org/namespaces/inkscape"
   version="1.1"
   x="0px"
   y="0px"
   width="32px"
   height="32px"
   viewBox="0 0 32 32"
   enable-background="new 0 0 32 32"
   xml:space="preserve"
   id="svg2"
   >

<metadata><rdf:RDF>

   <cc:Work rdf:about="">
   <dc:format>image/svg+xml</dc:format>
   <dc:type rdf:resource="http://purl.org/dc/dcmitype/StillImage" />
   <dc:title>PICOL Icon</dc:title>
   <dc:date>2009-03-15</dc:date>
   <dc:creator><cc:Agent><dc:title>Melih Bilgil</dc:title></cc:Agent></dc:creator>
   <dc:rights><cc:Agent><dc:title>Creative Commons BY-SA</dc:title></cc:Agent></dc:rights>
   <dc:publisher><cc:Agent><dc:title>PICOL - Pictorial Communication Language</dc:title></cc:Agent></dc:publisher>
   <dc:identifier>http://blog.picol.org</dc:identifier>
   <dc:source>http://blog.picol.org</dc:source>
   <dc:language>en</dc:language>
   <dc:subject>
     <rdf:Bag>
       <rdf:li>PICOL</rdf:li>
       <rdf:li>icon</rdf:li>
       <rdf:li>icons</rdf:li>
       <rdf:li>sign</rdf:li>
       <rdf:li>GUI</rdf:li>
       <rdf:li>vector</rdf:li>
       <rdf:li>interface</rdf:li>
     </rdf:Bag>
   </dc:subject>
   <dc:description>This is one icon out of all PICOL icons</dc:description>
   <dc:contributor>
       <cc:Agent><dc:title>Melih Bilgil (www.lonja.de), Christopher Adjei (www.boffer.net)</dc:title></cc:Agent></dc:contributor>
   <cc:license rdf:resource="http://creativecommons.org/licenses/by-sa/3.0/" /></cc:Work>
   <cc:License rdf:about="http://creativecommons.org/licenses/by-sa/3.0/">
       <cc:permits rdf:resource="http://creativecommons.org/ns#Reproduction" />
       <cc:permits rdf:resource="http://creativecommons.org/ns#Distribution" />
       <cc:requires rdf:resource="http://creativecommons.org/ns#Notice" />
       <cc:requires rdf:resource="http://creativecommons.org/ns#Attribution" />
       <cc:permits rdf:resource="http://creativecommons.org/ns#DerivativeWorks" />
       <cc:requires rdf:resource="http://creativecommons.org/ns#ShareAlike" /></cc:License>

   </rdf:RDF>
</metadata>

<g id="background">
	<rect fill="none" width="32" height="32"/>
</g>
<g id="agent">
	<path d="M24,28c0-2.21,1.79-4,4-4l0,0c2.21,0,4,1.79,4,4l0,0c0,2.21-1.79,4-4,4l0,0C25.79,32,24,30.21,24,28L24,28z M26,28
		c0.002,1.103,0.896,1.998,2,2l0,0c1.103-0.002,1.998-0.897,2-2l0,0c-0.002-1.104-0.897-1.998-2-2l0,0
		C26.896,26.002,26.002,26.896,26,28L26,28z"/>
	<path d="M0,4c0-2.209,1.791-4,4-4l0,0c2.207,0,3.998,1.791,4,4l0,0C7.998,6.209,6.207,7.998,4,8l0,0C1.791,7.998,0,6.209,0,4L0,4z
		 M2,4c0.002,1.105,0.895,1.998,2,1.998l0,0c1.103,0,1.998-0.893,1.998-1.998l0,0c0-1.105-0.895-1.998-1.998-2l0,0
		C2.895,2.002,2.002,2.895,2,4L2,4z"/>
	<path d="M28,8c2.208,0,4-1.791,4-4s-1.792-4-4-4s-4,1.791-4,4c0,0.74,0.215,1.424,0.565,2.019l-3.221,3.22
		C19.763,8.516,17.97,8.02,16,7.999c-7.694,0.078-12.73,7.33-12.813,7.379l-0.416,0.581l0.414,0.583
		c0.052,0.032,2.135,3.034,5.638,5.219l-2.804,2.805C5.424,24.215,4.74,24,4,24c-2.208,0-4,1.791-4,4s1.792,4,4,4s4-1.791,4-4
		c0-0.74-0.215-1.426-0.566-2.021l3.223-3.225c1.583,0.726,3.374,1.224,5.343,1.244c7.696-0.08,12.73-7.369,12.812-7.418L29.229,16
		l-0.416-0.583c-0.053-0.032-2.133-3.013-5.631-5.187l2.798-2.797C26.574,7.785,27.26,8,28,8z M26.358,15.565
		c0.142,0.161,0.265,0.307,0.37,0.434c-0.105,0.127-0.229,0.272-0.37,0.433C24.707,18.331,20.724,22.032,16,22
		c-3.152,0.006-5.96-1.608-7.987-3.29c-1.011-0.836-1.82-1.679-2.372-2.308c-0.142-0.163-0.266-0.309-0.371-0.437
		c0.105-0.125,0.228-0.269,0.369-0.428C7.291,13.649,11.272,9.967,16,10c3.152-0.008,5.963,1.598,7.988,3.272
		C24.998,14.104,25.807,14.942,26.358,15.565z"/>
	<g>
		<circle cx="16" cy="16" r="4"/>
	</g>
</g>
</svg>

<?xml version="1.0" encoding="UTF-8" standalone="no"?>
<svg
   xmlns:dc="http://purl.org/dc/elements/1.1/"
   xmlns:cc="http://creativecommons.org/ns#"
   xmlns:rdf="http://www.w3.org/1999/02/22-rdf-syntax-ns#"
   xmlns:svg="http://www.w3.org/2000/svg"
   xmlns="http://www.w3.org/2000/svg"
   xmlns:sodipodi="http://sodipodi.sourceforge.net/DTD/sodipodi-0.dtd"
   xmlns:inkscape="http://www.inkscape.org/namespaces/inkscape"
   version="1.1"
   x="0px"
   y="0px"
   width="32px"
   height="32px"
   viewBox="0 0 32 32"
   enable-background="new 0 0 32 32"
   xml:space="preserve"
   id="svg2"
   inkscape:version="0.48.4 r9939"
   sodipodi:docname="agent.svg"><defs
     id="defs21" /><sodipodi:namedview
     pagecolor="#ffffff"
     bordercolor="#666666"
     borderopacity="1"
     objecttolerance="10"
     gridtolerance="10"
     guidetolerance="10"
     inkscape:pageopacity="0"
     inkscape:pageshadow="2"
     inkscape:window-width="640"
     inkscape:window-height="480"
     id="namedview19"
     showgrid="false"
     inkscape:zoom="7.375"
     inkscape:cx="16"
     inkscape:cy="16"
     inkscape:window-x="53"
     inkscape:window-y="24"
     inkscape:window-maximized="0"
     inkscape:current-layer="svg2" /><metadata
     id="metadata3"><rdf:RDF><cc:Work
         rdf:about=""><dc:format>image/svg+xml</dc:format><dc:type
           rdf:resource="http://purl.org/dc/dcmitype/StillImage" /><dc:title>PICOL Icon</dc:title><dc:date>2009-03-15</dc:date><dc:creator><cc:Agent><dc:title>Melih Bilgil</dc:title></cc:Agent></dc:creator><dc:rights><cc:Agent><dc:title>Creative Commons BY-SA</dc:title></cc:Agent></dc:rights><dc:publisher><cc:Agent><dc:title>PICOL - Pictorial Communication Language</dc:title></cc:Agent></dc:publisher><dc:identifier>http://blog.picol.org</dc:identifier><dc:source>http://blog.picol.org</dc:source><dc:language>en</dc:language><dc:subject><rdf:Bag><rdf:li>PICOL</rdf:li><rdf:li>icon</rdf:li><rdf:li>icons</rdf:li><rdf:li>sign</rdf:li><rdf:li>GUI</rdf:li><rdf:li>vector</rdf:li><rdf:li>interface</rdf:li></rdf:Bag></dc:subject><dc:description>This is one icon out of all PICOL icons</dc:description><dc:contributor><cc:Agent><dc:title>Melih Bilgil (www.lonja.de), Christopher Adjei (www.boffer.net)</dc:title></cc:Agent></dc:contributor><cc:license
           rdf:resource="http://creativecommons.org/licenses/by-sa/3.0/" /></cc:Work><cc:License
         rdf:about="http://creativecommons.org/licenses/by-sa/3.0/"><cc:permits
           rdf:resource="http://creativecommons.org/ns#Reproduction" /><cc:permits
           rdf:resource="http://creativecommons.org/ns#Distribution" /><cc:requires
           rdf:resource="http://creativecommons.org/ns#Notice" /><cc:requires
           rdf:resource="http://creativecommons.org/ns#Attribution" /><cc:permits
           rdf:resource="http://creativecommons.org/ns#DerivativeWorks" /><cc:requires
           rdf:resource="http://creativecommons.org/ns#ShareAlike" /></cc:License></rdf:RDF></metadata><rect
     style="fill:none"
     y="0"
     x="0"
     id="rect6"
     height="32"
     width="32" /><path
     id="circle17"
     d="m 20,16 c 0,2.209139 -1.790861,4 -4,4 -2.209139,0 -4,-1.790861 -4,-4 0,-2.209139 1.790861,-4 4,-4 2.209139,0 4,1.790861 4,4 z m 8,-8 c 2.208,0 4,-1.791 4,-4 0,-2.209 -1.792,-4 -4,-4 -2.208,0 -4,1.791 -4,4 0,0.74 0.215,1.424 0.565,2.019 l -3.221,3.22 C 19.763,8.516 17.97,8.02 16,7.999 8.306,8.077 3.27,15.329 3.187,15.378 l -0.416,0.581 0.414,0.583 c 0.052,0.032 2.135,3.034 5.638,5.219 L 6.019,24.566 C 5.424,24.215 4.74,24 4,24 c -2.208,0 -4,1.791 -4,4 0,2.209 1.792,4 4,4 2.208,0 4,-1.791 4,-4 0,-0.74 -0.215,-1.426 -0.566,-2.021 l 3.223,-3.225 c 1.583,0.726 3.374,1.224 5.343,1.244 7.696,-0.08 12.73,-7.369 12.812,-7.418 L 29.229,16 28.813,15.417 C 28.76,15.385 26.68,12.404 23.182,10.23 L 25.98,7.433 C 26.574,7.785 27.26,8 28,8 z m -1.642,7.565 c 0.142,0.161 0.265,0.307 0.37,0.434 -0.105,0.127 -0.229,0.272 -0.37,0.433 C 24.707,18.331 20.724,22.032 16,22 12.848,22.006 10.04,20.392 8.013,18.71 7.002,17.874 6.193,17.031 5.641,16.402 5.499,16.239 5.375,16.093 5.27,15.965 5.375,15.84 5.498,15.696 5.639,15.537 7.291,13.649 11.272,9.967 16,10 c 3.152,-0.008 5.963,1.598 7.988,3.272 1.01,0.832 1.819,1.67 2.37,2.293 z M 24,28 c 0,-2.21 1.79,-4 4,-4 l 0,0 c 2.21,0 4,1.79 4,4 l 0,0 c 0,2.21 -1.79,4 -4,4 l 0,0 c -2.21,0 -4,-1.79 -4,-4 l 0,0 z m 2,0 c 0.002,1.103 0.896,1.998 2,2 l 0,0 c 1.103,-0.002 1.998,-0.897 2,-2 l 0,0 c -0.002,-1.104 -0.897,-1.998 -2,-2 l 0,0 c -1.104,0.002 -1.998,0.896 -2,2 l 0,0 z M 0,4 C 0,1.791 1.791,0 4,0 L 4,0 C 6.207,0 7.998,1.791 8,4 L 8,4 C 7.998,6.209 6.207,7.998 4,8 L 4,8 C 1.791,7.998 0,6.209 0,4 l 0,0 z m 2,0 c 0.002,1.105 0.895,1.998 2,1.998 l 0,0 C 5.103,5.998 5.998,5.105 5.998,4 l 0,0 C 5.998,2.895 5.103,2.002 4,2 L 4,2 C 2.895,2.002 2.002,2.895 2,4 l 0,0 z"
     style="" /></svg>
